!!!OTL: Nikolaus, komm in unser Haus pack die grosse Tasche aus
!!!ARE: Europa, Mitteleuropa, Deutschland, Westfalen, Muenster
!!!SCT: D0267
!!!YEM: Copyright 1995, estate of Helmut Schaffrath.
**kern
*ICvox
*Ivox
*M4/4
*k[f#]
*G:
{8dd
8dd
4dd
8dd
8ee
8dd
8cc
=1
4b
4b
2b}
=2
{4cc
4cc
8cc
8dd
8cc
8b
=3
4a
4a
2a}
=4
{4g
4a
4b
4cc
=5
8dd
8ee
8dd
8ee
2dd}
=6
{4gg
4dd
8dd
8ee
8dd
8cc
=7
4b
4a
2dd}
=8
{4gg
4dd
8dd
8ee
8dd
8cc
=9
4b
4a
2g}
==
!!!AGN: Ansinge - Lied
!!!ONB: ESAC (Essen Associative Code) Database: DVA
!!!AMT: simple quadruple
!!!AIN: vox
!!!EED: Helmut Schaffrath
!!!EEV: 1.0
*-
